picto/luggage-push-carts-framed.svg

<svg class="color-immutable" width="30" height="30" viewBox="0 0 30 30" fill="none" xmlns="http://www.w3.org/2000/svg"><path d="M29.9999 0H0V29.9999H29.9999V0Z" fill="#2D327D"/><path d="M25.4999 2.99999C26.3249 2.99999 26.9999 3.67499 26.9999 4.49999V25.4999C26.9999 26.3249 26.3249 26.9999 25.4999 26.9999H4.49999C3.67499 26.9999 2.99999 26.3249 2.99999 25.4999V4.49999C2.99999 3.67499 3.67499 2.99999 4.49999 2.99999H25.4999ZM25.4999 2.62499H4.49999C3.46612 2.62499 2.62499 3.46612 2.62499 4.49999V25.4999C2.62499 26.5338 3.46612 27.3749 4.49999 27.3749H25.4999C26.5338 27.3749 27.3749 26.5338 27.3749 25.4999V4.49999C27.3749 3.46612 26.5338 2.62499 25.4999 2.62499Z" fill="white"/><path d="M10.6873 19.6882H20.4372C21.2658 19.6882 21.9377 19.0149 21.9377 18.1887V13.4996C21.9377 12.6714 21.2659 12.0001 20.4372 12.0001H17.6252V11.2489C17.6252 10.8357 17.2887 10.5006 16.8746 10.5006H14.2502C13.8358 10.5006 13.4996 10.8357 13.4996 11.2489V12.0001H10.6873C9.85971 12.0001 9.18712 12.6715 9.18712 13.4996V18.1887C9.18719 19.015 9.85971 19.6882 10.6873 19.6882ZM14.2502 11.2489H16.8746V12.0001H14.2502V11.2489Z" fill="white"/><path d="M21.9377 21.0001V20.2508H8.62414V10.8748C8.62414 10.6686 8.45696 10.5006 8.24974 10.5006H6.37489C6.16782 10.5006 5.99974 10.6685 5.99974 10.8748C5.99974 11.0818 6.16782 11.2489 6.37489 11.2489H7.87534V21.0001H21.9377Z" fill="white"/><path d="M20.768 21.5517C20.0945 21.5517 19.5492 22.0977 19.5492 22.7698C19.5492 23.443 20.0945 23.9889 20.768 23.9889C21.4398 23.9889 21.986 23.4429 21.986 22.7698C21.986 22.0977 21.4398 21.5517 20.768 21.5517Z" fill="white"/><path d="M9.12384 21.5517C8.45124 21.5517 7.90501 22.0977 7.90501 22.7698C7.90501 23.443 8.45124 23.9889 9.12384 23.9889C9.79643 23.9889 10.3418 23.4429 10.3418 22.7698C10.3418 22.0977 9.79643 21.5517 9.12384 21.5517Z" fill="white"/></svg>

<svg class="color-immutable" width="30" height="30" viewBox="0 0 30 30" fill="none" xmlns="http://www.w3.org/2000/svg"><path d="M30 0H0v30h30V0Z" fill="#2D327D"/><path d="M25.5 3c.825 0 1.5.675 1.5 1.5v21c0 .825-.675 1.5-1.5 1.5h-21c-.825 0-1.5-.675-1.5-1.5v-21C3 3.675 3.675 3 4.5 3h21Zm0-.375h-21A1.877 1.877 0 0 0 2.625 4.5v21c0 1.034.841 1.875 1.875 1.875h21a1.877 1.877 0 0 0 1.875-1.875v-21A1.877 1.877 0 0 0 25.5 2.625Z" fill="#fff"/><path d="M10.687 19.688h9.75c.829 0 1.5-.673 1.5-1.5V13.5a1.5 1.5 0 0 0-1.5-1.5h-2.812v-.751a.75.75 0 0 0-.75-.748H14.25a.75.75 0 0 0-.75.748V12h-2.813a1.5 1.5 0 0 0-1.5 1.5v4.689c0 .826.673 1.5 1.5 1.5Zm3.563-8.44h2.625V12H14.25v-.751Z" fill="#fff"/><path d="M21.938 21v-.75H8.624v-9.375a.374.374 0 0 0-.374-.374H6.375a.375.375 0 1 0 0 .748h1.5V21h14.063ZM20.768 21.552a1.219 1.219 0 1 0 0 2.437 1.219 1.219 0 0 0 0-2.437ZM9.124 21.552a1.22 1.22 0 1 0 0 2.438 1.22 1.22 0 0 0 0-2.438Z" fill="#fff"/></svg>
